src/sources/forus-platform/resources/_platform-common/assets/img/features/icons/auth-2-fa/icon-1.svg

<svg width="51" height="58" viewBox="0 0 51 58" fill="none" xmlns="http://www.w3.org/2000/svg">
    <rect x="0.3125" width="50.375" height="58" rx="8" fill="#F7F9FC"/>
    <path d="M36.75 16.7504C31.2971 16.7504 27.6578 14.2721 26.2873 13.3392L26.02 13.1579C25.8625 13.0526 25.6813 13 25.5 13C25.3188 13 25.1374 13.0526 24.98 13.1579L24.7108 13.3401C23.2121 14.3609 19.7019 16.7504 14.25 16.7504C13.7318 16.7504 13.3125 17.1697 13.3125 17.6879V27.6727C13.3125 35.1589 17.2721 40.9974 25.0807 44.9011C25.2125 44.9671 25.3563 45 25.5 45C25.6438 45 25.7875 44.9671 25.9193 44.9011C33.7279 40.9974 37.6875 35.1589 37.6875 27.6727V17.6879C37.6875 17.1697 37.2682 16.7504 36.75 16.7504Z" fill="#092DAA"/>
    <path d="M33.1556 20.2019C30.6461 19.778 28.2291 18.8973 25.9714 17.5844C25.8259 17.4993 25.6629 17.4567 25.4999 17.4567C25.337 17.4567 25.174 17.4993 25.0284 17.5844C22.7726 18.8963 20.3556 19.7771 17.8434 20.2019C17.3929 20.2788 17.0624 20.6688 17.0624 21.1266V27.6727C17.0624 34.3779 20.8719 37.848 24.9882 40.5323C25.1438 40.6339 25.3214 40.6843 25.4999 40.6843C25.6784 40.6843 25.8561 40.6339 26.0117 40.5323C30.1279 37.848 33.9374 34.3779 33.9374 27.6727V21.1266C33.9374 20.6688 33.6069 20.2788 33.1556 20.2019Z" fill="#305DFC"/>
    <path d="M33.9374 27.6727V21.1266C33.9374 20.6688 33.6069 20.2788 33.1556 20.2019C30.6461 19.778 28.2291 18.8973 25.9714 17.5844C25.8259 17.4993 25.6629 17.4567 25.4999 17.4567V40.6843C25.6784 40.6843 25.8561 40.6339 26.0117 40.5323C30.1279 37.848 33.9374 34.3779 33.9374 27.6727Z" fill="url(#paint0_linear_735_37025)"/>
    <path d="M28.9753 26.4624C28.6091 26.0963 28.0158 26.0963 27.6496 26.4624L25.4999 28.6121L24.5624 29.5496L23.3502 28.3374C22.984 27.9712 22.3907 27.9712 22.0245 28.3374C21.6583 28.7036 21.6583 29.2969 22.0245 29.6631L23.8995 31.5381C24.0826 31.7212 24.3225 31.8127 24.5623 31.8127C24.8021 31.8127 25.0421 31.7212 25.2251 31.5381L25.4998 31.2634L28.9751 27.7881C29.3415 27.4219 29.3415 26.8286 28.9753 26.4624Z" fill="white"/>
    <defs>
        <linearGradient id="paint0_linear_735_37025" x1="29.7187" y1="17.4567" x2="29.7187" y2="40.6843" gradientUnits="userSpaceOnUse">
            <stop stop-color="#0A33C1"/>
            <stop offset="1" stop-color="#0A33C1" stop-opacity="0"/>
        </linearGradient>
    </defs>
</svg>

<svg width="51" height="58" fill="none" xmlns="http://www.w3.org/2000/svg"><rect x=".313" width="50.375" height="58" rx="8" fill="#F7F9FC"/><path d="M36.75 16.75c-5.453 0-9.092-2.478-10.463-3.41l-.267-.182a.934.934 0 0 0-1.04 0l-.27.182c-1.498 1.02-5.008 3.41-10.46 3.41a.937.937 0 0 0-.938.938v9.985c0 7.486 3.96 13.324 11.769 17.228a.936.936 0 0 0 .838 0c7.809-3.904 11.768-9.742 11.768-17.228v-9.985a.937.937 0 0 0-.937-.938Z" fill="#092DAA"/><path d="M33.156 20.202a21.32 21.32 0 0 1-7.185-2.618.933.933 0 0 0-.943 0 21.33 21.33 0 0 1-7.185 2.618.938.938 0 0 0-.78.925v6.546c0 6.705 3.809 10.175 7.925 12.86a.933.933 0 0 0 1.024 0c4.116-2.685 7.925-6.155 7.925-12.86v-6.546a.938.938 0 0 0-.781-.925Z" fill="#305DFC"/><path d="M33.937 27.673v-6.546a.938.938 0 0 0-.781-.925 21.32 21.32 0 0 1-7.185-2.618.933.933 0 0 0-.471-.127v23.227c.178 0 .356-.05.512-.152 4.116-2.684 7.925-6.154 7.925-12.86Z" fill="url(#a)"/><path d="M28.975 26.462a.937.937 0 0 0-1.325 0l-2.15 2.15-.938.938-1.212-1.213a.937.937 0 1 0-1.326 1.326l1.875 1.875a.934.934 0 0 0 1.326 0l.275-.275 3.475-3.475a.937.937 0 0 0 0-1.326Z" fill="#fff"/><defs><linearGradient id="a" x1="29.719" y1="17.457" x2="29.719" y2="40.684" gradientUnits="userSpaceOnUse"><stop stop-color="#0A33C1"/><stop offset="1" stop-color="#0A33C1" stop-opacity="0"/></linearGradient></defs></svg>
